public/assets/logo/logo-key.svg

<svg width="50" height="50" viewBox="0 0 50 50" fill="none" xmlns="http://www.w3.org/2000/svg">
<rect width="50" height="50" fill="#F5F5F5"/>
<path d="M-486 -532C-486 -533.105 -485.105 -534 -484 -534H7250C7251.1 -534 7252 -533.105 7252 -532V1154C7252 1155.1 7251.1 1156 7250 1156H-484C-485.105 1156 -486 1155.1 -486 1154V-532Z" fill="#6A6A6A"/>
<rect width="1680" height="1024" transform="translate(-211 -201)" fill="#F9FAFB"/>
<circle cx="25" cy="25" r="24.5" fill="#1D2A3D" stroke="#172437"/>
<path d="M9.375 24.9993L16.1509 18.2829L18.0865 20.2015L13.2462 24.9993L18.0865 29.7972L16.1509 31.7157L9.375 24.9993ZM20.6011 36.8419L26.7419 12.5L29.3975 13.1581L23.2581 37.5L20.6011 36.8419ZM31.9121 29.7972L36.7525 24.9993L31.9121 20.2015L33.8491 18.2829L40.625 24.9993L33.8491 31.7157L31.9121 29.7972Z" fill="white"/>
</svg>

<svg width="50" height="50" fill="none" xmlns="http://www.w3.org/2000/svg"><path fill="#F5F5F5" d="M0 0h50v50H0z"/><path d="M-486-532a2 2 0 0 1 2-2h7734c1.1 0 2 .895 2 2v1686c0 1.1-.9 2-2 2H-484c-1.105 0-2-.9-2-2V-532Z" fill="#6A6A6A"/><path fill="#F9FAFB" d="M-211-201h1680V823H-211z"/><circle cx="25" cy="25" r="24.5" fill="#1D2A3D" stroke="#172437"/><path d="m9.375 25 6.776-6.717 1.936 1.918L13.247 25l4.84 4.798-1.936 1.919-6.776-6.717Zm11.226 11.842 6.14-24.342 2.657.658-6.14 24.342-2.657-.658Zm11.311-7.045L36.752 25l-4.84-4.797 1.937-1.92L40.625 25l-6.776 6.717-1.937-1.919Z" fill="#fff"/></svg>
